X:37
T:Schottis efter Pelle Fors
R:schottis
A:\"Osterg\"otland
Z:id:hn-schottis-37
M:C|
L:1/8
K:G
(3ded Bd g2B2 | (3BcB Ac e4 | DEFG ABcd | ed^cd B4 |
(3ded Bd g2B2 | (3BcB Ac e3e | fedc dcBA | G2G2 G4 :|
|: bagf edcB | A2E2 A2AG | FDFA c2Bc | edBG D4 |
bagf edcB | A2E2 A2AG | FDFA d2F2 | G2G2 G4 :|

